X:1
T:Mischievous Bee, The
L:1/8
M:6/8
I:linebreak $
K:C
V:1 treble 
V:1
 E/F/ | GAG GAB | cce c2 G | GFE GFE | ADD D2 E/F/ | GAG GAB | cce c2 c | BAG AGA |$ BGG G2 G || %9
 GAG FGF | EFE D2 G | GcG FdF | EcE D2 (E/F/) | GAG GAB | ccd e2 G | AAd GAB |$ cGe c2 || %17
